X:256
T:Opus 57
C:David Grisman
N:TablEdited by Larry Tanner
L:1/8
Q:1/4=240
M:4/4
K:Bb
z8 | d'c' bd' c'b ac' | ba gb ag fa | gf eg fe df | ed ce dc Bd | cB Ac BA GB | 
AG FA GF EG | FE DF ED CE | DC B,D CB, A,B, | G,8 | z6 DF | "Gm"GF GA "D7"cB Ac | 
"Bb"dc Bd "D7"cB Ac | "Gm"BA GB "D7"AG _GD | G2 G,6 | "Gm"G_G =GA "D7"cB Ac | 
"Bb"dc Bd "D"cB AG | "D7"_G3F z2 =E2 | z2 E2 D2 DF | "Gm"GF GA "D7"cB Ac | "Bb"dc Bd "D7"cB Ac | 
"Gm"BA GB "D7"AG _GD | "Gm"G2 G,6 | "Cm"G,C DD A2 G2 | "D7"ED CE DC B,A, | "Gm"G,8 | 
z8 |: "Gm"G,C DD "Bb"A2 G2 | "Gm"ED CE "Bb"DC B,A, | "Gm"G,C DD "Bb"A2 G2 | "Cm"ED CE "D7"D4 | 
"Gm"G,C DD "Bb"A2 G2 | "Gm"ED CE "Bb"DC B,A, | "Gm"G,B, CD "Bb"G_G F2 | "D7"DC B,2 "Gm"G,4 :| 
 

